!!!COM:	Compere, Loyset
!!!CDT:	~1445///-1518/08/16
!!!OTL:	Chanter ne puis chieux la mynonne
!!!AGN:	Song; Chanson
!!!SCT:	Com3005
!!!SCA:	Com3005
!!!voices:	3
**kern	**kern	**kern
*Ivox	*Ivox	*Ivox
*I"Bassus	*I"Tenor	*I"Superius
*I'B	*I'T	*I'S
*staff3	*staff2	*staff1
*clefF4	*clefGv2	*clefG2
*k[b-]	*k[b-]	*k[b-]
*M2/1	*M2/1	*M2/1
*met(C|)	*met(C|)	*met(C|)
=1-	=1-	=1-
0r	0r	0a
=2	=2	=2
0r	0d	2.a
.	.	4g
.	.	2f
.	.	2e
=3	=3	=3
0G	2.d	0d
.	4c	.
.	2B-	.
.	2A	.
=4	=4	=4
2.G	0G	0r
4F	.	.
2E	.	.
2D	.	.
=5	=5	=5
0C	0r	0g
=6	=6	=6
0r	0c	2.g
.	.	4f
.	.	2e
.	.	2d
=7	=7	=7
0F	2.c	0c
.	4B-	.
.	2A	.
.	2G	.
=8	=8	=8
2.F	0F	1r
4E	.	.
2D	.	[1f
2C	.	.
=9	=9	=9
1BB-	1r	1f]
1GG	1B-	[1g
=10	=10	=10
1C	1c	2g]
.	.	2a
[1BB-	[1d	[1b-
=11	=11	=11
1BB-]	2d]	2b-]
.	4c	2a
.	4B-	.
[1F	[1c	2g
.	.	[2a
=12	=12	=12
1F]	1c]	4a]
.	.	4g
.	.	4f
.	.	4e
1G	2B-	2d
.	4A	[2g
.	4G	.
=13	=13	=13
0D	0A	2g]
.	.	4f#i
.	.	4e
.	.	1f#i
=14	=14	=14
1r	0G	[0g
1GG	.	.
=15	=15	=15
1BB-	1r	0g]
1C	1G	.
=16	=16	=16
2D	1B-	1r
1E-i	.	.
.	1c	1g
4D	.	.
4C	.	.
=17	=17	=17
2BB-	2.d	1b-
4AA	.	.
4GG	4e	.
2FF	2f	2a
[2C	[2e	[2g
=18	=18	=18
2C]	4e]	4g]
.	4d	4f
2F	1d	4e
.	.	4d
2G	.	1e
2A	2c#i	.
=19	=19	=19
2D	[0d	1d
1G	.	.
.	.	1r
[2F	.	.
=20	=20	=20
4F]	1d]	1f
4E	.	.
2D	.	.
4C	[1e	2.g
4D	.	.
4E	.	.
4F	.	4a
=21	=21	=21
2G	1e]	2b-
2.A	.	2.cc
.	1c	.
4G	.	4b-
4F	.	4a
4E	.	4g
=22	=22	=22
2.D	2d	2.f
.	4c	.
4E	4B-	8eL
.	.	8dJ
2F	2A	2c
[2G	2G	[2B-
=23	=23	=23
4G]	1d	4B-]
4A	.	4c
1B-	.	4d
.	.	4e
.	1B-	2f
4A	.	2g
4G	.	.
=24	=24	=24
2F	0c	2a
2E	.	1b-
1F	.	.
.	.	2a
=25	=25	=25
1BB-	2.B-	1.b-
.	4c	.
2r	2d	.
[2FF	[2c	[2a
=26	=26	=26
4FF]	4c]	4a]
4GG	4B-	4g
2AA	4A	4f
.	4G	4e
2BB-	2F	[1d
2GG	[2B-	.
=27	=27	=27
2BB-	4B-]	2d]
.	4A	.
2C	1G	4c
.	.	4B-
1D	.	1A
.	2F#i	.
=28	=28	=28
!LO:TX:Z=8:t=s.c.	!LO:TX:Z=8:t=s.c.	!LO:TX:Z=8:t=s.c.
2.GG	[0G	0G
4AA	.	.
2BB-	.	.
[2C	.	.
=29	=29	=29
2C]	0G]	1r
4BB-	.	.
4AA	.	.
2GG	.	1d
[2G	.	.
=30	=30	=30
2G]	1r	0d
4F	.	.
4E	.	.
4D	1B-	.
4C	.	.
4BB-	.	.
4AA	.	.
=31	=31	=31
2GG	0B-	1r
2.G	.	.
.	.	1d
4D	.	.
2G	.	.
=32	=32	=32
2F	1r	0f
2.D	.	.
.	[1d	.
4E	.	.
2F	.	.
=33	=33	=33
2BB-	2d]	1f
2D	4c	.
.	4B-	.
1C	1e-i	2.g
.	.	4a
=34	=34	=34
2BB-	2d	2b-
2.F	2.c	1cc
4E	8dL	.
.	8eJ	.
[2D	[2f	4b-
.	.	4a
=35	=35	=35
2D]	2f]	1g
2C	2e	.
2D	2d	2f
[2C	[2e	[2g
=36	=36	=36
2C]	4e]	4g]
.	4d	4f
2BB-	1d	4e
.	.	4d
2GG	.	1e
2AA	2c#i	.
=37	=37	=37
4BB-	1.d	0d
4C	.	.
4D	.	.
4E	.	.
2F	.	.
[2G	[2B-	.
=38	=38	=38
2G]	2B-]	1r
4F	4A	.
4E	4G	.
1D	1A	1f
=39	=39	=39
2r	2.G	0g
2.G	.	.
.	4A	.
.	2B-	.
4F	.	.
4E	[2c	.
4D	.	.
=40	=40	=40
2C	2c]	0a
2.F	1A	.
4E	.	.
4D	[2d	.
4C	.	.
=41	=41	=41
2BB-	2d]	1b-
1E-i	2B-	.
.	1c	2g
2C	.	[2a
=42	=42	=42
1D	2A	4a]
.	.	4g
.	1B-	4f
.	.	4e
2BB-	.	2d
2C	4A	4c
.	4G	4B-
=43	=43	=43
2D	2F	2A
2E-i	2G	2.G
1C	1E-	.
.	.	4A
.	.	4B-
.	.	4c
=44	=44	=44
2.GG	2D	2.B-
.	1G	.
4AA	.	4c
4BB-	.	4d
4C	.	4e
2D	2F	[2d
=45	=45	=45
4BB-	1B-	4d]
4C	.	4e
4D	.	4f
4E	.	4g
2F	2A	2.f
4D	[2d	.
4E	.	4g
=46	=46	=46
4F	2d]	4a
4G	.	4b-
4A	2c	2a
4B-	.	.
2c	2.e-i	2g
4C	.	4cc
4D	4d	4b-
=47	=47	=47
4E	2c	4a
4F	.	4g
2G	2B-	1g
1D	1A	.
.	.	2f#i
=48	=48	=48
0GGl	0Gl	0gl
==	==	==
*-	*-	*-
!!!RDF**kern: l=long note in original notation
!!!RDF**kern: i=editorial accidental
!!!ENC:	Megan K. Eagen 2013/12/01
!!!END:	2013/12/01/
!!!EED:	Jesse Rodin
!!!EEV:	2014/02/23/
!!!ONB:	Translated from MusicXML and edited on 2014/02/23/ by Craig Sapp
!!muse2ps: C^@{COM}^i2I150v95,95,150Q16
